(Project Placa_LEDS)
(Created by Estlcam version 11 build 11,118)
(Machining time about 00:05:36 hours)

(Required tools:)
(FIBRA 1mm)

G90
G91.1
M03 S24000
G00 Z5.0000


(No. 1: Hole 2)
G00 X12.0064 Y2.6522
G00 Z0.5000
G01 X12.2564 F100 S24000
G02 X11.8814 Y2.4357 Z0.3333 I-0.2500 J0.0000
G02 Y2.8687 Z0.1667 I0.1250 J0.2165
G02 X12.2564 Y2.6522 Z0.0000 I0.1250 J-0.2165
G02 X11.8814 Y2.4357 Z-0.0667 I-0.2500 J0.0000
G02 Y2.8687 Z-0.1333 I0.1250 J0.2165
G02 X12.2564 Y2.6522 Z-0.2000 I0.1250 J-0.2165
G02 X11.8814 Y2.4357 I-0.2500 J0.0000
G02 Y2.8687 I0.1250 J0.2165
G02 X12.2564 Y2.6522 I0.1250 J-0.2165
G01 X12.0064 F500
G01 X12.0040 Y2.6730
G02 X12.0285 Y2.6521 I0.0135 J-0.0090
G01 X12.0186 Y2.6478
G01 X12.0082 Y2.6507
G01 Y2.1960
G01 X8.1970
G01 Y3.0870
G03 X8.9260 Y2.7990 I0.8113 J0.9870
G01 X11.0860
G03 X11.9860 Y3.3210 I-0.0764 J1.1686
G03 X12.9040 Y2.7990 I1.2064 J1.0534
G01 X15.1990 Y2.8080
G03 X15.8110 Y3.1050 I-0.2289 J1.2506
G01 Y2.1960
G01 X12.0082
G01 Y1.7370
G01 X7.7380
G01 Y34.2540
G01 X8.3050
G01 X8.2690 Y34.1280
G01 Y3.8880
G03 X8.9440 Y3.2580 I0.7356 J0.1115
G01 X11.0680
G03 X11.7340 Y3.9060 I-0.0825 J0.7510
G01 Y31.2570
G01 X23.0650
G03 X23.7310 Y31.8690 I-0.0711 J0.7457
G01 Y39.1050
G01 X23.6950 Y39.2580
G01 X24.2620
G01 Y30.7350
G01 X12.9490
G03 X12.2740 Y30.1410 I0.0731 J-0.7636
G01 X12.2650 Y3.9060
G03 X12.9670 Y3.2580 I0.7417 J0.0992
G01 X15.0460
G03 X15.7300 Y3.8880 I-0.0529 J0.7438
G01 Y27.2610
G01 X27.0880
G03 X27.7360 Y27.8910 I-0.1047 J0.7560
G01 Y39.2580
G01 X28.3030
G01 X28.2670 Y39.1050
G01 Y26.7300
G01 X16.9180
G03 X16.2700 Y26.1000 I0.0811 J-0.7317
G01 Y1.7370
G01 X12.0082
G00 Z5.0000
G00 X19.7350 Y3.7350
G00 Z0.5000
G01 X19.9850 F100
G02 X19.6100 Y3.5185 Z0.3333 I-0.2500 J0.0000
G02 Y3.9515 Z0.1667 I0.1250 J0.2165
G02 X19.9850 Y3.7350 Z0.0000 I0.1250 J-0.2165
G02 X19.6100 Y3.5185 Z-0.0667 I-0.2500 J0.0000
G02 Y3.9515 Z-0.1333 I0.1250 J0.2165
G02 X19.9850 Y3.7350 Z-0.2000 I0.1250 J-0.2165
G02 X19.6100 Y3.5185 I-0.2500 J0.0000
G02 Y3.9515 I0.1250 J0.2165
G02 X19.9850 Y3.7350 I0.1250 J-0.2165
G01 X19.7350 F500
G01 Y12.2580
G01 X31.0480
G03 X31.7320 Y12.8880 I-0.0529 J0.7438
G01 Y39.0870
G01 X31.6870 Y39.2580
G01 X32.3080
G01 X32.2630 Y39.0870
G01 Y11.7360
G01 X20.9320
G03 X20.2660 Y11.0880 I0.0825 J-0.7510
G01 Y3.8880
G01 X20.3020 Y3.7350
G01 X19.7350
G00 Z5.0000
G00 Y1.2600
G00 Z0.5000
G01 X19.9850 F100
G02 X19.6100 Y1.0435 Z0.3333 I-0.2500 J0.0000
G02 Y1.4765 Z0.1667 I0.1250 J0.2165
G02 X19.9850 Y1.2600 Z0.0000 I0.1250 J-0.2165
G02 X19.6100 Y1.0435 Z-0.0667 I-0.2500 J0.0000
G02 Y1.4765 Z-0.1333 I0.1250 J0.2165
G02 X19.9850 Y1.2600 Z-0.2000 I0.1250 J-0.2165
G02 X19.6100 Y1.0435 I-0.2500 J0.0000
G02 Y1.4765 I0.1250 J0.2165
G02 X19.9850 Y1.2600 I0.1250 J-0.2165
G01 X19.7350 F500
G01 X20.3020
G01 X20.2660 Y1.0980
G01 Y0.7380
G01 X19.7350
G01 Y1.2600
G00 Z5.0000
G00 X23.6950 Y3.7350
G00 Z0.5000
G01 X23.9450 F100
G02 X23.5700 Y3.5185 Z0.3333 I-0.2500 J0.0000
G02 Y3.9515 Z0.1667 I0.1250 J0.2165
G02 X23.9450 Y3.7350 Z0.0000 I0.1250 J-0.2165
G02 X23.5700 Y3.5185 Z-0.0667 I-0.2500 J0.0000
G02 Y3.9515 Z-0.1333 I0.1250 J0.2165
G02 X23.9450 Y3.7350 Z-0.2000 I0.1250 J-0.2165
G02 X23.5700 Y3.5185 I-0.2500 J0.0000
G02 Y3.9515 I0.1250 J0.2165
G02 X23.9450 Y3.7350 I0.1250 J-0.2165
G01 X23.6950 F500
G01 X23.7310 Y3.8700
G01 Y8.2530
G01 X24.3070
G01 X24.2620 Y8.0460
G01 Y3.9600
G01 X24.2980 Y3.7350
G01 X23.6950
G00 Z5.0000
G00 X27.6910
G00 Z0.5000
G01 X27.9410 F100
G02 X27.5660 Y3.5185 Z0.3333 I-0.2500 J0.0000
G02 Y3.9515 Z0.1667 I0.1250 J0.2165
G02 X27.9410 Y3.7350 Z0.0000 I0.1250 J-0.2165
G02 X27.5660 Y3.5185 Z-0.0667 I-0.2500 J0.0000
G02 Y3.9515 Z-0.1333 I0.1250 J0.2165
G02 X27.9410 Y3.7350 Z-0.2000 I0.1250 J-0.2165
G02 X27.5660 Y3.5185 I-0.2500 J0.0000
G02 Y3.9515 I0.1250 J0.2165
G02 X27.9410 Y3.7350 I0.1250 J-0.2165
G01 X27.6910 F500
G01 X27.7360 Y3.8880
G01 Y5.2560
G01 X28.3030
G01 X28.2670 Y5.1030
G01 Y3.7350
G01 X27.6910
G00 Z5.0000
G00 X31.7320
G00 Z0.5000
G01 X31.9820 F100
G02 X31.6070 Y3.5185 Z0.3333 I-0.2500 J0.0000
G02 Y3.9515 Z0.1667 I0.1250 J0.2165
G02 X31.9820 Y3.7350 Z0.0000 I0.1250 J-0.2165
G02 X31.6070 Y3.5185 Z-0.0667 I-0.2500 J0.0000
G02 Y3.9515 Z-0.1333 I0.1250 J0.2165
G02 X31.9820 Y3.7350 Z-0.2000 I0.1250 J-0.2165
G02 X31.6070 Y3.5185 I-0.2500 J0.0000
G02 Y3.9515 I0.1250 J0.2165
G02 X31.9820 Y3.7350 I0.1250 J-0.2165
G01 X31.7320 F500
G01 Y5.0850
G01 X31.6960 Y5.2560
G01 X32.3080
G01 X32.2630 Y5.0580
G01 Y1.7370
G01 X31.6960
G01 X31.7320 Y1.8900
G01 Y3.7350
G00 Z5.0000
G00 X35.7370
G00 Z0.5000
G01 X35.9870 F100
G02 X35.6120 Y3.5185 Z0.3333 I-0.2500 J0.0000
G02 Y3.9515 Z0.1667 I0.1250 J0.2165
G02 X35.9870 Y3.7350 Z0.0000 I0.1250 J-0.2165
G02 X35.6120 Y3.5185 Z-0.0667 I-0.2500 J0.0000
G02 Y3.9515 Z-0.1333 I0.1250 J0.2165
G02 X35.9870 Y3.7350 Z-0.2000 I0.1250 J-0.2165
G02 X35.6120 Y3.5185 I-0.2500 J0.0000
G02 Y3.9515 I0.1250 J0.2165
G02 X35.9870 Y3.7350 I0.1250 J-0.2165
G01 X35.7370 F500
G01 Y5.0850
G01 X35.6920 Y5.2560
G01 X36.2680
G01 Y0.7380
G01 X35.7370
G01 Y3.7350
G00 Z5.0000
G00 Y8.7300
G00 Z0.5000
G01 X35.9870 F100
G02 X35.6120 Y8.5135 Z0.3333 I-0.2500 J0.0000
G02 Y8.9465 Z0.1667 I0.1250 J0.2165
G02 X35.9870 Y8.7300 Z0.0000 I0.1250 J-0.2165
G02 X35.6120 Y8.5135 Z-0.0667 I-0.2500 J0.0000
G02 Y8.9465 Z-0.1333 I0.1250 J0.2165
G02 X35.9870 Y8.7300 Z-0.2000 I0.1250 J-0.2165
G02 X35.6120 Y8.5135 I-0.2500 J0.0000
G02 Y8.9465 I0.1250 J0.2165
G02 X35.9870 Y8.7300 I0.1250 J-0.2165
G01 X35.7370 F500
G01 X35.6920
G01 X35.7370 Y8.9010
G01 Y39.0510
G01 X35.6920 Y39.2580
G01 X36.2680
G01 Y8.7300
G01 X35.7370
G00 Z5.0000
G00 X20.2660 Y34.7310
G00 Z0.5000
G01 X20.5160 F100
G02 X20.1410 Y34.5145 Z0.3333 I-0.2500 J0.0000
G02 Y34.9475 Z0.1667 I0.1250 J0.2165
G02 X20.5160 Y34.7310 Z0.0000 I0.1250 J-0.2165
G02 X20.1410 Y34.5145 Z-0.0667 I-0.2500 J0.0000
G02 Y34.9475 Z-0.1333 I0.1250 J0.2165
G02 X20.5160 Y34.7310 Z-0.2000 I0.1250 J-0.2165
G02 X20.1410 Y34.5145 I-0.2500 J0.0000
G02 Y34.9475 I0.1250 J0.2165
G02 X20.5160 Y34.7310 I0.1250 J-0.2165
G01 X20.2660 F500
G01 X19.6900
G01 X19.7350 Y34.8840
G01 Y39.0870
G01 X19.6900 Y39.2580
G01 X20.3110
G01 X20.2660 Y39.0870
G01 Y34.7310
G00 Z5.0000
G00 X16.2700 Y37.7370
G00 Z0.5000
G01 X16.5200 F100
G02 X16.1450 Y37.5205 Z0.3333 I-0.2500 J0.0000
G02 Y37.9535 Z0.1667 I0.1250 J0.2165
G02 X16.5200 Y37.7370 Z0.0000 I0.1250 J-0.2165
G02 X16.1450 Y37.5205 Z-0.0667 I-0.2500 J0.0000
G02 Y37.9535 Z-0.1333 I0.1250 J0.2165
G02 X16.5200 Y37.7370 Z-0.2000 I0.1250 J-0.2165
G02 X16.1450 Y37.5205 I-0.2500 J0.0000
G02 Y37.9535 I0.1250 J0.2165
G02 X16.5200 Y37.7370 I0.1250 J-0.2165
G01 X16.2700 F500
G01 X15.6940
G01 X15.7300 Y37.8900
G01 Y39.2580
G01 X16.3060
G01 X16.2700 Y39.0960
G01 Y37.7370
G00 Z5.0000
G00 X12.3010
G00 Z0.5000
G01 X12.5510 F100
G02 X12.1760 Y37.5205 Z0.3333 I-0.2500 J0.0000
G02 Y37.9535 Z0.1667 I0.1250 J0.2165
G02 X12.5510 Y37.7370 Z0.0000 I0.1250 J-0.2165
G02 X12.1760 Y37.5205 Z-0.0667 I-0.2500 J0.0000
G02 Y37.9535 Z-0.1333 I0.1250 J0.2165
G02 X12.5510 Y37.7370 Z-0.2000 I0.1250 J-0.2165
G02 X12.1760 Y37.5205 I-0.2500 J0.0000
G02 Y37.9535 I0.1250 J0.2165
G02 X12.5510 Y37.7370 I0.1250 J-0.2165
G01 X12.3010 F500
G01 X11.6980
G01 X11.7340 Y37.8900
G01 Y41.2560
G01 X12.3100
G01 X12.2650 Y41.1030
G01 Y37.8990
G01 X12.3010 Y37.7370
G00 Z5.0000
G00 X8.3050
G00 Z0.5000
G01 X8.5550 F100
G02 X8.1800 Y37.5205 Z0.3333 I-0.2500 J0.0000
G02 Y37.9535 Z0.1667 I0.1250 J0.2165
G02 X8.5550 Y37.7370 Z0.0000 I0.1250 J-0.2165
G02 X8.1800 Y37.5205 Z-0.0667 I-0.2500 J0.0000
G02 Y37.9535 Z-0.1333 I0.1250 J0.2165
G02 X8.5550 Y37.7370 Z-0.2000 I0.1250 J-0.2165
G02 X8.1800 Y37.5205 I-0.2500 J0.0000
G02 Y37.9535 I0.1250 J0.2165
G02 X8.5550 Y37.7370 I0.1250 J-0.2165
G01 X8.3050 F500
G01 X7.7380
G01 Y43.2540
G01 X8.3050
G01 X8.2690 Y43.0110
G01 Y37.8630
G01 X8.3050 Y37.7370
G00 Z5.0000
G00 X23.6950 Y41.7330
G00 Z0.5000
G01 X23.9450 F100
G02 X23.5700 Y41.5165 Z0.3333 I-0.2500 J0.0000
G02 Y41.9495 Z0.1667 I0.1250 J0.2165
G02 X23.9450 Y41.7330 Z0.0000 I0.1250 J-0.2165
G02 X23.5700 Y41.5165 Z-0.0667 I-0.2500 J0.0000
G02 Y41.9495 Z-0.1333 I0.1250 J0.2165
G02 X23.9450 Y41.7330 Z-0.2000 I0.1250 J-0.2165
G02 X23.5700 Y41.5165 I-0.2500 J0.0000
G02 Y41.9495 I0.1250 J0.2165
G02 X23.9450 Y41.7330 I0.1250 J-0.2165
G01 X23.6950 F500
G01 X23.7310 Y41.8860
G01 Y43.2540
G01 X24.2620
G01 Y41.7330
G01 X23.6950
G00 Z5.0000
G00 X23.1337 Y39.4818
G00 Z0.5000
G01 X23.3837 F100
G02 X23.0087 Y39.2653 Z0.3333 I-0.2500 J0.0000
G02 Y39.6983 Z0.1667 I0.1250 J0.2165
G02 X23.3837 Y39.4818 Z0.0000 I0.1250 J-0.2165
G02 X23.0087 Y39.2653 Z-0.0667 I-0.2500 J0.0000
G02 Y39.6983 Z-0.1333 I0.1250 J0.2165
G02 X23.3837 Y39.4818 Z-0.2000 I0.1250 J-0.2165
G02 X23.0087 Y39.2653 I-0.2500 J0.0000
G02 Y39.6983 I0.1250 J0.2165
G02 X23.3837 Y39.4818 I0.1250 J-0.2165
G01 X23.1337 F500
G03 X22.9800 Y39.5000 I-0.1379 J-0.5059
G01 X21.0000
G03 X20.5013 Y39.0354 I0.0000 J-0.5000
G01 X20.5000 Y38.9800
G01 Y34.5000
G01 X9.0000
G03 X8.5013 Y34.0354 I0.0000 J-0.5000
G01 X8.5000 Y33.9800
G01 Y4.0000
G01 X8.5025 Y3.9501
G03 X9.0200 Y3.5000 I0.4982 J0.0503
G01 X11.0000
G03 X11.5000 Y4.0200 I-0.0003 J0.5006
G01 Y31.5000
G01 X23.0000
G03 X23.5000 Y32.0200 I-0.0003 J0.5006
G01 Y39.0000
G03 X23.1337 Y39.4818 I-0.5000 J0.0000
G00 Z5.0000
G00 X32.2630 Y39.0354
G00 Z0.3000
G01 Z-0.2000 F100
G01 X32.5013 F500
G01 X32.5000 Y38.9800
G01 Y11.5000
G01 X21.0000
G03 X20.5013 Y11.0354 I0.0000 J-0.5000
G01 X20.5000 Y10.9800
G01 Y4.0000
G01 X20.5025 Y3.9501
G03 X21.0200 Y3.5000 I0.4982 J0.0503
G01 X23.0000
G03 X23.5000 Y4.0200 I-0.0003 J0.5006
G01 Y8.5000
G01 X35.0000
G03 X35.5000 Y9.0200 I-0.0003 J0.5006
G01 Y39.0000
G03 X34.9800 Y39.5000 I-0.5006 J-0.0003
G01 X33.0000
G03 X32.5013 Y39.0354 I0.0000 J-0.5000
G00 Z5.0000
G00 X32.6420 Y39.3490
G00 Z0.3000
G01 Z-0.2000 F100
G01 X32.5013 Y39.5000 F500
G01 X36.5000
G01 Y8.5000
G01 X25.0200
G03 X24.5000 Y8.0000 I-0.0194 J-0.5003
G01 Y4.0200
G01 X24.5013 Y3.9646
G03 X25.0000 Y3.5000 I0.4987 J0.0354
G01 X26.9800
G03 X27.5000 Y4.0000 I0.0194 J0.5003
G01 Y5.5000
G01 X36.5000
G01 Y0.5000
G01 X35.5000
G01 Y4.9800
G03 X35.0000 Y5.5000 I-0.5003 J0.0194
G01 X33.0200
G03 X32.5000 Y5.0000 I-0.0194 J-0.5003
G01 Y1.5000
G01 X21.0200
G03 X20.5000 Y1.0000 I-0.0194 J-0.5003
G01 Y0.5000
G01 X19.5000
G01 Y1.5000
G01 X30.9800
G03 X31.5000 Y2.0000 I0.0194 J0.5003
G01 Y4.9800
G03 X31.0000 Y5.5000 I-0.5003 J0.0194
G01 X29.0200
G03 X28.5000 Y5.0000 I-0.0194 J-0.5003
G01 Y3.5000
G01 X19.5000
G01 Y12.5000
G01 X30.9800
G03 X31.5000 Y13.0000 I0.0194 J0.5003
G01 Y38.9800
G03 X31.0000 Y39.5000 I-0.5003 J0.0194
G01 X29.0200
G03 X28.5000 Y39.0000 I-0.0194 J-0.5003
G01 Y26.5000
G01 X17.0200
G03 X16.5000 Y26.0000 I-0.0194 J-0.5003
G01 Y1.5000
G01 X7.5000
G01 Y34.5000
G01 X18.9800
G03 X19.5000 Y35.0000 I0.0194 J0.5003
G01 Y38.9800
G03 X19.0000 Y39.5000 I-0.5003 J0.0194
G01 X17.0200
G03 X16.5000 Y39.0000 I-0.0194 J-0.5003
G01 Y37.5000
G01 X7.5000
G01 Y43.5000
G01 X20.5000
G01 X9.0200
G03 X8.5000 Y43.0000 I-0.0194 J-0.5003
G01 Y38.0200
G01 X8.5013 Y37.9646
G03 X9.0000 Y37.5000 I0.4987 J0.0354
G01 X10.9800
G03 X11.5000 Y38.0000 I0.0194 J0.5003
G01 Y41.5000
G01 X22.9800
G03 X23.5000 Y42.0000 I0.0194 J0.5003
G01 Y43.5000
G01 X24.5000
G01 Y41.5000
G01 X13.0200
G03 X12.5000 Y41.0000 I-0.0194 J-0.5003
G01 Y38.0200
G01 X12.5013 Y37.9646
G03 X13.0000 Y37.5000 I0.4987 J0.0354
G01 X14.9800
G03 X15.5000 Y38.0000 I0.0194 J0.5003
G01 Y39.5000
G01 X24.5000
G01 Y30.5000
G01 X13.0200
G03 X12.5000 Y30.0000 I-0.0194 J-0.5003
G01 Y4.0200
G01 X12.5013 Y3.9646
G03 X13.0000 Y3.5000 I0.4987 J0.0354
G01 X14.9800
G03 X15.5000 Y4.0000 I0.0194 J0.5003
G01 Y27.5000
G01 X26.9800
G03 X27.5000 Y28.0000 I0.0194 J0.5003
G01 Y39.5000
G01 X32.5013
G00 Z5.0000


(No. 2: Part 4)
G00 X-0.4999 Y21.2579 Z5.0000
G00 Z0.5000
G01 Z0.0000 F100
G01 Y20.7579 Z-0.2500
G01 Y21.2579 Z-0.5000
G01 X-0.5000 Y5.2500 F500
G01 X-0.4975 Y5.2001
G03 X-0.0354 Y4.7513 I0.4975 J0.0499
G02 X4.7642 Y-0.1185 I0.0169 J-4.7834
G03 X5.2342 Y-0.4998 I0.4858 J0.1185
G01 X21.2421 Y-0.4999
G00 Z0.0000
G01 X22.7421
G01 X23.2421 Z-0.2500 F100
G01 X22.7421 Z-0.5000
G01 X38.7500 Y-0.5000 F500
G03 X39.2487 Y-0.0354 I0.0000 J0.5000
G01 X39.2650 Y0.3723
G02 X44.1185 Y4.7642 I4.7670 J-0.3902
G03 X44.4998 Y5.2342 I-0.1185 J0.4858
G01 X44.4999 Y21.2421
G00 Z0.0000
G01 Y22.7421
G01 Y23.2421 Z-0.2500 F100
G01 Y22.7421 Z-0.5000
G01 X44.5000 Y38.7500 F500
G03 X44.0354 Y39.2487 I-0.5000 J0.0000
G02 X39.2651 Y43.6270 I-0.0323 J4.7527
G01 X39.2496 Y44.0196
G03 X38.7300 Y44.5000 I-0.5003 J-0.0199
G01 X22.7400
G00 Z0.0000
G01 X21.2400
G01 X20.7400 Z-0.2500 F100
G01 X21.2400 Z-0.5000
G01 X5.2500 F500
G03 X4.7500 Y44.0193 I0.0003 J-0.5007
G02 X-0.1185 Y39.2358 I-4.7816 J-0.0028
G03 X-0.4998 Y38.7658 I0.1185 J-0.4858
G01 X-0.4999 Y22.7579
G00 Z0.0000
G01 Y21.2579
G01 Z-0.5000 F100
G01 Y20.7579 Z-0.7500
G01 Y21.2579 Z-1.0000
G01 X-0.5000 Y5.2500 F500
G01 X-0.4975 Y5.2001
G03 X-0.0354 Y4.7513 I0.4975 J0.0499
G02 X4.7642 Y-0.1185 I0.0169 J-4.7834
G03 X5.2342 Y-0.4998 I0.4858 J0.1185
G01 X21.2421 Y-0.4999
G00 Z0.0000
G01 X22.7421
G01 Z-0.5000 F100
G01 X23.2421 Z-0.7500
G01 X22.7421 Z-1.0000
G01 X38.7500 Y-0.5000 F500
G03 X39.2487 Y-0.0354 I0.0000 J0.5000
G01 X39.2650 Y0.3723
G02 X44.1185 Y4.7642 I4.7670 J-0.3902
G03 X44.4998 Y5.2342 I-0.1185 J0.4858
G01 X44.4999 Y21.2421
G00 Z0.0000
G01 Y22.7421
G01 Z-0.5000 F100
G01 Y23.2421 Z-0.7500
G01 Y22.7421 Z-1.0000
G01 X44.5000 Y38.7500 F500
G03 X44.0354 Y39.2487 I-0.5000 J0.0000
G02 X39.2651 Y43.6270 I-0.0323 J4.7527
G01 X39.2496 Y44.0196
G03 X38.7300 Y44.5000 I-0.5003 J-0.0199
G01 X22.7400
G00 Z0.0000
G01 X21.2400
G01 Z-0.5000 F100
G01 X20.7400 Z-0.7500
G01 X21.2400 Z-1.0000
G01 X5.2500 F500
G03 X4.7500 Y44.0193 I0.0003 J-0.5007
G02 X-0.1185 Y39.2358 I-4.7816 J-0.0028
G03 X-0.4998 Y38.7658 I0.1185 J-0.4858
G01 X-0.4999 Y22.7579
G00 Z0.0000
G01 Y21.2579
G00 Z5.0000
G00 X0.0000 Y0.0000

M05
M30
